icons/user-ban.svg

<svg width="24" height="24" viewBox="0 0 24 24" fill="none" xmlns="http://www.w3.org/2000/svg">
<path fill-rule="evenodd" clip-rule="evenodd" d="M15 6.81195C15 5.51295 13.782 3.99795 12 3.99795C10.218 3.99795 9.004 5.45995 9.004 6.99795C9.004 8.55095 10.234 9.99195 12.002 9.99195L12.242 9.99795L10.542 11.782C9.73374 11.5351 9.00124 11.0874 8.41292 10.4807C7.82461 9.87399 7.39967 9.12806 7.17782 8.31258C6.95596 7.49711 6.94442 6.63871 7.14428 5.81757C7.34414 4.99643 7.74887 4.23934 8.32067 3.61704C8.89246 2.99473 9.61267 2.52751 10.414 2.25903C11.2153 1.99054 12.0716 1.92955 12.9029 2.08176C13.7342 2.23396 14.5134 2.59438 15.1676 3.12937C15.8218 3.66435 16.3298 4.35643 16.644 5.14095L15 6.81095V6.81195ZM2 19.783C2 15.045 5.331 13.998 7.776 14C7.776 13.998 2 19.783 2 19.783ZM20.002 19.998C20.002 17.331 18.669 15.998 16.002 15.998H14.257C14.9318 15.3307 15.6081 14.665 16.286 14.001C20.096 13.999 22 15.998 22 19.998C22 21.331 21.333 21.998 20 21.998H8.283L10.284 19.998H20.002ZM18.207 6.36495C18.67 5.88495 19.142 5.88495 19.621 6.36495C20.101 6.84495 20.101 7.31595 19.621 7.77995L5.721 21.68C5.261 22.161 4.79 22.161 4.307 21.68C3.825 21.197 3.825 20.726 4.307 20.265L18.207 6.36495Z" fill="#3A3A47"/>
</svg>

<svg xmlns="http://www.w3.org/2000/svg" width="24" height="24" viewBox="0 0 24 24">
    <path fill="#3A3A47" fill-rule="evenodd" d="M19.621 6.367c.48.48.48.951 0 1.415l-13.9 13.9c-.46.481-.931.481-1.414 0-.482-.483-.482-.954 0-1.415l13.9-13.9c.463-.48.935-.48 1.414 0zm-3.335 7.636C20.096 14.001 22 16 22 20c0 1.333-.667 2-2 2H8.283l.104-.103L10.284 20h9.718c0-2.667-1.333-4-4-4h-1.745a611.359 611.359 0 0 1 2.029-1.997zm-8.51 0C7.776 14 2 19.784 2 19.784 2 15.047 5.331 14 7.776 14.002zM12 2a5.002 5.002 0 0 1 4.644 3.143L15.05 6.762 15 6.814C15 5.515 13.782 4 12 4S9.004 5.462 9.004 7c0 1.553 1.23 2.994 2.998 2.994l.24.006-1.7 1.784A5 5 0 0 1 12 2z"/>
</svg>
